X: 25
T: Cliffs Of Moher, The
Z: Sean Perry
S: https://thesession.org/tunes/12#setting50913
R: jig
M: 6/8
L: 1/8
K: Ador
|:eaa bag|eaf ged|~c2A BAG|EFG ABd|
eaa bag|eaf ged|~c2A BAG|EFG A3:|
|:~e3 dBA|~e3 dBA|GAB dBA|GAB dBd|
[1 ~e3 dBA|~e3 dBA| GAB dBG|EFG ABd:|
[2~e3 ded|cdc ~B2E|EFG BAG|EDB, A,2 z||

